packages/sources/assets/src/assets/amazon-pay.svg

<svg width="58" height="40" viewBox="0 0 58 40" fill="none" xmlns="http://www.w3.org/2000/svg">
<rect x="0.5" y="0.5" width="57" height="39" rx="3.5" fill="white" stroke="#F3F3F3"/>
<path fill-rule="evenodd" clip-rule="evenodd" d="M32.5368 21.5397H31.5692C31.4737 21.5345 31.3985 21.4548 31.3973 21.3573V16.2735C31.4076 16.1769 31.4886 16.1045 31.5838 16.1069H32.4844C32.5664 16.1096 32.6366 16.1677 32.6562 16.2489V17.0264H32.6751C32.9467 16.3313 33.3274 16 33.9977 16C34.4325 16 34.857 16.1604 35.1311 16.5987C35.3846 17.0054 35.3846 17.6899 35.3846 18.1817V21.3801C35.3704 21.4734 35.2907 21.5416 35.1982 21.5397H34.222C34.1344 21.5358 34.062 21.4686 34.0501 21.3801V18.6199C34.0501 18.5767 34.0505 18.5319 34.0509 18.4861C34.0555 17.9426 34.0615 17.2508 33.4425 17.2508C33.1933 17.2625 32.9737 17.4215 32.8805 17.6575C32.7448 17.9678 32.7267 18.2781 32.7267 18.6217V21.3573C32.723 21.4605 32.6389 21.5416 32.5377 21.5397H32.5368ZM28.4378 16.007C29.8789 16.007 30.6583 17.2692 30.6583 18.8732C30.6583 20.4238 29.799 21.6536 28.4378 21.6536C27.0242 21.6536 26.2542 20.3914 26.2542 18.8198C26.2542 17.2482 27.0336 16.007 28.4378 16.007ZM28.4472 17.0448C27.7314 17.0448 27.6858 18.0388 27.6858 18.6594L27.6858 18.6799C27.6857 19.3087 27.6856 20.6052 28.4378 20.6052C29.1983 20.6052 29.2266 19.5359 29.2266 18.8838C29.2266 18.456 29.2086 17.9424 29.0814 17.5365C28.9723 17.1859 28.7549 17.0448 28.4472 17.0448ZM10.4983 21.5502H9.5281C9.4381 21.5454 9.36504 21.4742 9.35624 21.3827V16.2989C9.3595 16.197 9.44193 16.1164 9.54185 16.1175H10.4467C10.5394 16.1227 10.6135 16.1982 10.6186 16.2928V16.9563H10.6366C10.8721 16.3138 11.3164 16.0149 11.9145 16.0149C12.5126 16.0149 12.9019 16.3138 13.1743 16.9563C13.3561 16.4618 13.7853 16.1059 14.2969 16.025C14.8085 15.9442 15.3231 16.1511 15.6431 16.5662C15.9071 16.9322 15.8986 17.442 15.8907 17.9208V17.9209C15.8894 18.0016 15.888 18.0816 15.888 18.1597V21.3669C15.8871 21.4166 15.8669 21.4639 15.8317 21.4983C15.7965 21.5326 15.7494 21.5513 15.7007 21.5502H14.7305C14.6351 21.5451 14.5599 21.4653 14.5586 21.3678V18.6734C14.5586 18.6326 14.5593 18.58 14.5601 18.5203V18.5203C14.5632 18.2674 14.568 17.886 14.5312 17.7215C14.459 17.3796 14.2416 17.2832 13.9606 17.2832C13.703 17.2913 13.4749 17.455 13.3805 17.6996C13.2879 17.9388 13.2887 18.324 13.2893 18.6094L13.2894 18.6734V21.3669C13.2885 21.4165 13.2684 21.4636 13.2334 21.4979C13.1984 21.5323 13.1515 21.5511 13.1029 21.5502H12.1302C12.0349 21.5446 11.9599 21.4651 11.9583 21.3678V18.6734C11.9583 18.6182 11.9591 18.5605 11.96 18.5012V18.5012V18.5012V18.5012V18.5012V18.5012V18.5011V18.5011C11.9677 17.9515 11.9773 17.271 11.3568 17.271C10.6855 17.271 10.6861 18.0456 10.6865 18.6312L10.6865 18.6734V21.3669C10.6856 21.4166 10.6653 21.4639 10.6301 21.4983C10.595 21.5326 10.5478 21.5513 10.4992 21.5502H10.4983ZM7.61007 21.6124C7.68377 21.6547 7.77561 21.6452 7.83951 21.5887L7.84724 21.5905C8.04059 21.4143 8.39292 21.1022 8.59143 20.9331C8.66705 20.8673 8.6533 20.7578 8.59143 20.6701C8.57255 20.6436 8.55355 20.6176 8.53467 20.5918L8.53463 20.5917C8.37553 20.3742 8.22449 20.1676 8.22449 19.7524V18.2106C8.22449 18.1611 8.22474 18.112 8.22498 18.0631V18.063V18.0629V18.0628V18.0626V18.0625V18.0624V18.0623V18.0621C8.22792 17.4667 8.23062 16.9219 7.79482 16.5058C7.42359 16.1411 6.80659 16.0131 6.33395 16.0131C5.41017 16.0131 4.37897 16.3646 4.16327 17.5287C4.15433 17.5758 4.16471 17.6246 4.19199 17.6636C4.21927 17.7027 4.26107 17.7287 4.30764 17.7355L5.24088 17.8398C5.33202 17.8257 5.40251 17.7509 5.41275 17.6575C5.49352 17.2569 5.82351 17.0632 6.19388 17.0632C6.39497 17.0632 6.62011 17.1377 6.7387 17.32C6.86041 17.5031 6.85852 17.746 6.85682 17.9643C6.85662 17.9895 6.85643 18.0144 6.85643 18.0388V18.1668C6.76818 18.1769 6.67569 18.1866 6.58042 18.1965C6.06804 18.2498 5.47538 18.3115 5.0312 18.5104C4.42967 18.7786 4 19.3246 4 20.1284C4 21.1575 4.63591 21.672 5.45314 21.672C6.14318 21.672 6.52043 21.5063 7.05408 20.9523C7.0798 20.9906 7.10301 21.0259 7.12491 21.0592L7.12492 21.0592C7.25222 21.2529 7.33511 21.379 7.61007 21.6124ZM6.86076 19.2228L6.86073 19.1748V18.9618C6.15865 18.9618 5.41704 19.1152 5.41704 19.9584C5.41704 20.3879 5.63446 20.6771 6.00655 20.6771C6.27982 20.6771 6.52473 20.5053 6.67941 20.2266C6.86139 19.8965 6.8611 19.5873 6.86076 19.2228ZM21.3147 20.6666C21.2958 20.64 21.2768 20.614 21.2579 20.5881C21.0988 20.3706 20.9478 20.1641 20.9478 19.7498V18.2071C20.9478 18.1544 20.9481 18.102 20.9484 18.05L20.9484 18.0492C20.9518 17.4569 20.9548 16.9163 20.5181 16.5022C20.146 16.1376 19.529 16.0096 19.0573 16.0096C18.1335 16.0096 17.1023 16.3603 16.8857 17.5251C16.8765 17.5725 16.8869 17.6217 16.9144 17.661C16.9419 17.7003 16.984 17.7263 17.031 17.7329L17.9719 17.8363C18.0629 17.8219 18.1333 17.7473 18.1438 17.654C18.2254 17.2534 18.5537 17.0597 18.9241 17.0597C19.1243 17.0597 19.3537 17.1351 19.4689 17.3174C19.5914 17.4998 19.5896 17.7428 19.5879 17.9611C19.5877 17.9862 19.5875 18.011 19.5875 18.0353V18.1606C19.501 18.1705 19.4105 18.1798 19.3173 18.1894C18.8034 18.2424 18.2074 18.3038 17.7622 18.5033C17.1538 18.7716 16.7268 19.3176 16.7268 20.1223C16.7268 21.1504 17.3627 21.665 18.1799 21.665C18.8674 21.665 19.2472 21.4993 19.78 20.9453C19.8052 20.9828 19.828 21.0174 19.8494 21.05L19.8495 21.0501L19.8497 21.0504L19.8498 21.0505C19.9789 21.2467 20.0607 21.371 20.3368 21.6054C20.4105 21.6474 20.502 21.6383 20.5663 21.5826C20.7596 21.4073 21.1119 21.0943 21.3104 20.9252C21.3938 20.8647 21.38 20.7578 21.3147 20.6666ZM19.407 20.2222C19.2532 20.5001 19.0074 20.6719 18.735 20.6719C18.3629 20.6719 18.1455 20.3826 18.1455 19.954C18.1455 19.1099 18.8871 18.9574 19.5892 18.9574V19.1713L19.5892 19.2106C19.5894 19.5797 19.5896 19.8903 19.407 20.2222ZM22.1363 17.0054V16.2814C22.134 16.2318 22.1524 16.1836 22.187 16.1487C22.2216 16.1137 22.269 16.0954 22.3176 16.0982H25.5083C25.5568 16.0965 25.6039 16.1151 25.6386 16.1497C25.6733 16.1843 25.6927 16.2319 25.6922 16.2814V16.9046C25.6922 17.0089 25.6063 17.1456 25.4524 17.3612L23.7991 19.7682C24.4126 19.7533 25.0614 19.8471 25.6191 20.167C25.7221 20.223 25.7878 20.3311 25.791 20.4501V21.2285C25.791 21.3354 25.6767 21.459 25.5556 21.395C24.4972 20.8401 23.2408 20.8424 22.1844 21.4011C22.0735 21.4616 21.9575 21.3398 21.9575 21.2328V20.4922C21.9474 20.3176 21.9887 20.1439 22.0761 19.9934L23.9916 17.1886H22.321C22.2724 17.1905 22.2251 17.172 22.1901 17.1374C22.1552 17.1027 22.1358 17.055 22.1363 17.0054ZM39.0007 16.7442C39.2446 16.5248 39.5233 16.3493 39.8248 16.2253C40.1097 16.1094 40.4136 16.05 40.7202 16.05C41.0251 16.0442 41.3274 16.1064 41.6062 16.2323C41.8689 16.3551 42.099 16.5403 42.2774 16.7722C42.4715 17.0292 42.6151 17.3221 42.7001 17.6347C42.8032 18.0052 42.853 18.3891 42.848 18.7742C42.8526 19.1675 42.7993 19.5593 42.6898 19.9365C42.5982 20.2565 42.448 20.556 42.2473 20.8191C42.0609 21.0584 41.8242 21.2519 41.5547 21.3853C41.2715 21.5194 40.9619 21.5857 40.6498 21.5791C40.0664 21.5889 39.5017 21.3692 39.0729 20.9655V23.3987C39.0811 23.456 39.0623 23.5138 39.0222 23.5547C38.9821 23.5956 38.9254 23.6148 38.8692 23.6065H38.2677C38.2116 23.6148 38.1549 23.5956 38.1148 23.5547C38.0746 23.5138 38.0558 23.456 38.064 23.3987V16.412C38.0562 16.3548 38.0751 16.2972 38.1152 16.2564C38.1552 16.2156 38.2117 16.1963 38.2677 16.2042H38.7154C38.7738 16.1987 38.832 16.2177 38.8763 16.2569C38.9206 16.2962 38.9472 16.3522 38.95 16.412L39.0007 16.7442ZM40.4358 16.8792C39.9424 16.8831 39.4637 17.0508 39.072 17.3569V20.2494C39.5063 20.5825 39.954 20.7487 40.4152 20.7481C41.3513 20.7481 41.8193 20.1053 41.8193 18.8198C41.8193 17.5342 41.3582 16.887 40.4358 16.8783V16.8792ZM44.1189 17.1351L44.1954 17.1088C44.6794 16.9567 45.1825 16.877 45.6889 16.8721C46.0962 16.8727 46.3813 16.949 46.544 17.1009C46.7067 17.2528 46.788 17.5158 46.788 17.8898V18.5717C46.3689 18.462 45.9385 18.4032 45.5059 18.3964C44.9089 18.3958 44.434 18.5463 44.0811 18.8478C43.7282 19.1493 43.5518 19.5525 43.5518 20.0574C43.5529 20.5278 43.6961 20.9033 43.9814 21.1837C44.2667 21.4642 44.6534 21.6045 45.1415 21.6045C45.4433 21.6032 45.7422 21.5437 46.0223 21.4292C46.3178 21.3115 46.5913 21.1431 46.831 20.9313L46.8825 21.274C46.8851 21.331 46.9105 21.3843 46.9527 21.4216C46.995 21.4589 47.0504 21.4768 47.106 21.4712H47.5442C47.6003 21.4792 47.6567 21.4599 47.6968 21.4191C47.7368 21.3783 47.7557 21.3207 47.7479 21.2635V17.7171C47.7473 17.1491 47.5943 16.7304 47.289 16.4611C46.9836 16.1917 46.5087 16.057 45.8642 16.057C45.5435 16.057 45.2234 16.0863 44.9078 16.1446C44.6323 16.1895 44.3627 16.2663 44.1043 16.3734C44.0418 16.395 43.9858 16.4327 43.9419 16.483C43.9085 16.5447 43.8941 16.6153 43.9006 16.6854V16.9633C43.9006 17.0886 43.947 17.1509 44.033 17.1509C44.0623 17.1504 44.0913 17.1451 44.1189 17.1351ZM46.0885 20.6929C45.8638 20.7785 45.6263 20.8239 45.3864 20.827C45.1218 20.8276 44.9181 20.7569 44.7754 20.6149C44.6328 20.4729 44.5615 20.2704 44.5615 20.0075C44.5609 19.405 44.9444 19.1038 45.7121 19.1038C45.894 19.1041 46.0757 19.1164 46.2561 19.1406C46.4358 19.1637 46.6142 19.1964 46.7906 19.2387V20.2985C46.5774 20.4653 46.3407 20.5983 46.0885 20.6929ZM50.423 23.4189C50.6636 23.2109 50.8759 22.8681 51.0598 22.3907L53.2992 16.5776C53.3362 16.4989 53.3603 16.4145 53.3705 16.3278C53.3705 16.2454 53.3232 16.2034 53.2279 16.2034H52.6581C52.5799 16.1957 52.5013 16.2138 52.4338 16.2551C52.3764 16.3205 52.3348 16.3989 52.3127 16.4838L50.9377 20.5115L49.5121 16.4838C49.4899 16.3989 49.4484 16.3205 49.3909 16.2551C49.3235 16.2138 49.2449 16.1957 49.1666 16.2034H48.5557C48.4611 16.2034 48.4139 16.2454 48.4139 16.3278C48.4237 16.4145 48.4475 16.4989 48.4843 16.5776L50.4453 21.5221L50.252 22.048C50.1368 22.3805 50.0079 22.609 49.8653 22.7334C49.6935 22.8677 49.4798 22.934 49.2638 22.9201C49.1719 22.9221 49.0801 22.9151 48.9896 22.8991C48.9393 22.8881 48.8881 22.8813 48.8367 22.8789C48.7344 22.8789 48.6837 22.9447 48.6837 23.0762V23.3461C48.678 23.4205 48.6958 23.4948 48.7344 23.5582C48.7767 23.6086 48.8341 23.6434 48.8977 23.6573C49.0869 23.7082 49.282 23.7327 49.4777 23.73C49.8673 23.7306 50.1824 23.6269 50.423 23.4189Z" fill="#232F3E"/>
<path fill-rule="evenodd" clip-rule="evenodd" d="M23.732 24.7828C23.9529 24.2227 24.4444 22.9675 24.2107 22.6633H24.2124C23.9797 22.3585 22.6735 22.5185 22.086 22.5904L22.0847 22.5906C21.906 22.6125 21.8785 22.4539 22.0392 22.339C23.0824 21.5914 24.7916 21.8052 24.9901 22.0577C25.1886 22.3101 24.936 24.0579 23.9589 24.8923C23.8085 25.0203 23.665 24.9519 23.732 24.7828ZM16.7121 25.647C18.9842 25.647 21.6301 24.9151 23.4528 23.5434V23.546C23.7544 23.3146 23.4957 22.9745 23.1881 23.1077C21.1986 23.9637 19.063 24.4105 16.9038 24.4225C13.9081 24.4225 11.0105 23.5846 8.66619 22.1935C8.46081 22.0717 8.30784 22.2864 8.47971 22.4433C10.7366 24.5203 13.6725 25.6628 16.7121 25.647Z" fill="#FF9900"/>
</svg>

<svg width="58" height="40" fill="none" xmlns="http://www.w3.org/2000/svg"><rect x=".5" y=".5" width="57" height="39" rx="3.5" fill="#fff" stroke="#F3F3F3"/><path fill-rule="evenodd" clip-rule="evenodd" d="M32.537 21.54h-.968a.183.183 0 0 1-.172-.183v-5.084a.184.184 0 0 1 .187-.166h.9c.082.003.153.06.172.142v.777h.02c.27-.695.651-1.026 1.322-1.026.434 0 .859.16 1.133.599.254.406.254 1.09.254 1.583v3.198a.186.186 0 0 1-.187.16h-.976a.183.183 0 0 1-.172-.16v-2.894c.006-.543.012-1.235-.607-1.235a.638.638 0 0 0-.563.406c-.135.31-.153.621-.153.965v2.735a.187.187 0 0 1-.19.183Zm-4.1-5.533c1.442 0 2.221 1.262 2.221 2.866 0 1.55-.859 2.78-2.22 2.78-1.414 0-2.184-1.262-2.184-2.833 0-1.572.78-2.813 2.184-2.813Zm.01 1.038c-.716 0-.761.994-.761 1.614v.02c0 .63 0 1.926.752 1.926.76 0 .789-1.07.789-1.721 0-.428-.018-.942-.146-1.348-.109-.35-.326-.491-.634-.491ZM10.498 21.55h-.97a.184.184 0 0 1-.172-.167v-5.084a.185.185 0 0 1 .186-.181h.905c.092.005.167.08.172.175v.663h.018c.235-.642.68-.941 1.277-.941.599 0 .988.299 1.26.941a1.44 1.44 0 0 1 1.123-.931 1.42 1.42 0 0 1 1.346.541c.264.366.256.876.248 1.355l-.003.239v3.207c0 .05-.021.097-.056.131a.182.182 0 0 1-.131.052h-.97a.184.184 0 0 1-.172-.182v-2.695l.001-.153c.003-.253.008-.634-.029-.799-.072-.341-.29-.438-.57-.438a.645.645 0 0 0-.58.417c-.093.239-.092.624-.092.91v2.757c0 .05-.02.097-.056.13a.181.181 0 0 1-.13.053h-.973a.184.184 0 0 1-.172-.182v-2.695l.002-.172c.008-.55.017-1.23-.603-1.23-.671 0-.67.775-.67 1.36v2.736a.188.188 0 0 1-.057.131.182.182 0 0 1-.13.052h-.002Zm-2.888.062a.197.197 0 0 0 .23-.023l.007.002c.194-.177.546-.489.744-.658.076-.066.062-.175 0-.263a7.588 7.588 0 0 0-.056-.078c-.16-.218-.31-.424-.31-.84v-1.689c.003-.596.006-1.141-.43-1.557-.371-.365-.988-.493-1.461-.493-.924 0-1.955.352-2.17 1.516a.178.178 0 0 0 .028.135.17.17 0 0 0 .116.071l.933.105a.206.206 0 0 0 .172-.183c.08-.4.41-.594.78-.594.202 0 .427.075.546.257.121.183.12.426.118.644v.203l-.277.03c-.512.053-1.105.114-1.549.313C4.43 18.78 4 19.325 4 20.128c0 1.03.636 1.544 1.453 1.544.69 0 1.067-.166 1.601-.72l.07.107c.128.194.211.32.486.553Zm-.75-2.39v-.26c-.701 0-1.443.153-1.443.996 0 .43.217.72.59.72.273 0 .518-.173.672-.451.182-.33.182-.64.182-1.004Zm14.455 1.445-.057-.079c-.16-.217-.31-.424-.31-.838v-1.7c.004-.593.007-1.134-.43-1.548-.372-.364-.989-.492-1.46-.492-.924 0-1.956.35-2.172 1.515a.178.178 0 0 0 .028.136c.028.04.07.065.117.072l.94.103a.207.207 0 0 0 .173-.182c.081-.4.41-.594.78-.594.2 0 .43.075.545.257.122.183.12.426.119.644v.2l-.27.028c-.515.053-1.11.115-1.556.314-.608.269-1.035.815-1.035 1.62 0 1.027.636 1.542 1.453 1.542.687 0 1.067-.166 1.6-.72l.07.105c.129.197.21.321.487.555a.199.199 0 0 0 .23-.022c.193-.176.545-.489.743-.658.084-.06.07-.167.005-.258Zm-1.908-.445c-.154.278-.4.45-.672.45-.372 0-.59-.29-.59-.718 0-.844.742-.997 1.444-.997v.254c0 .369 0 .68-.182 1.011Zm2.73-3.217v-.724a.177.177 0 0 1 .05-.132.17.17 0 0 1 .13-.05h3.191a.176.176 0 0 1 .13.05.183.183 0 0 1 .054.132v.624c0 .104-.086.24-.24.456L23.8 19.768c.614-.015 1.262.08 1.82.399a.332.332 0 0 1 .172.283v.779c0 .106-.114.23-.235.166a3.61 3.61 0 0 0-3.372.006c-.11.06-.227-.061-.227-.168v-.74a.891.891 0 0 1 .12-.5l1.915-2.804H22.32a.176.176 0 0 1-.13-.052.184.184 0 0 1-.055-.132ZM39 16.745c.244-.22.522-.396.824-.52.285-.116.589-.175.895-.175.305-.006.607.056.886.182.263.123.493.308.671.54.194.257.338.55.423.863.103.37.153.754.148 1.14.005.393-.049.784-.158 1.162-.092.32-.242.619-.443.882-.186.24-.423.433-.692.566-.283.134-.593.2-.905.194a2.245 2.245 0 0 1-1.577-.614V23.4a.185.185 0 0 1-.05.156.178.178 0 0 1-.154.052h-.601a.178.178 0 0 1-.153-.052.185.185 0 0 1-.051-.156v-6.987a.186.186 0 0 1 .051-.156c.04-.04.097-.06.153-.052h.447a.213.213 0 0 1 .161.053.22.22 0 0 1 .074.155l.05.332Zm1.435.134a2.243 2.243 0 0 0-1.364.478v2.892c.434.334.882.5 1.343.5.936 0 1.404-.644 1.404-1.93 0-1.285-.46-1.932-1.383-1.94Zm3.683.256.076-.026a5.147 5.147 0 0 1 1.494-.237c.407 0 .692.077.855.229.163.152.244.415.244.789v.682c-.42-.11-.85-.169-1.282-.176-.597 0-1.072.15-1.425.452-.353.301-.53.704-.53 1.21.002.47.145.845.43 1.126.286.28.672.42 1.16.42.302 0 .601-.06.881-.175.296-.117.57-.286.809-.498l.051.343a.21.21 0 0 0 .07.148.201.201 0 0 0 .154.05h.438a.178.178 0 0 0 .153-.053.186.186 0 0 0 .05-.155v-3.547c0-.568-.153-.987-.458-1.256-.305-.27-.78-.404-1.425-.404-.32 0-.64.03-.956.088a3.619 3.619 0 0 0-.804.228.38.38 0 0 0-.162.11.356.356 0 0 0-.041.202v.278c0 .126.046.188.132.188.03 0 .058-.006.086-.016Zm1.97 3.558a2.046 2.046 0 0 1-.703.134c-.264 0-.468-.07-.61-.212-.143-.142-.215-.345-.215-.607 0-.603.383-.904 1.151-.904a4.882 4.882 0 0 1 1.079.135v1.06c-.214.166-.45.3-.702.394Zm4.334 2.726c.24-.208.453-.55.637-1.028l2.24-5.813a.81.81 0 0 0 .07-.25c0-.083-.047-.125-.142-.125h-.57a.362.362 0 0 0-.224.052.561.561 0 0 0-.121.229l-1.375 4.027-1.426-4.027a.561.561 0 0 0-.121-.229.361.361 0 0 0-.224-.052h-.611c-.095 0-.142.042-.142.125a.81.81 0 0 0 .07.25l1.961 4.944-.193.526c-.115.333-.244.561-.387.685a.884.884 0 0 1-.601.187 1.4 1.4 0 0 1-.274-.02.916.916 0 0 0-.153-.021c-.103 0-.153.066-.153.197v.27a.356.356 0 0 0 .05.212c.043.05.1.085.164.1.189.05.384.075.58.072.39 0 .704-.103.945-.311Z" fill="#232F3E"/><path fill-rule="evenodd" clip-rule="evenodd" d="M23.732 24.783c.22-.56.712-1.816.479-2.12h.001c-.232-.305-1.538-.145-2.126-.073h-.001c-.179.023-.207-.136-.046-.251 1.043-.748 2.753-.534 2.951-.281.199.252-.054 2-1.031 2.834-.15.128-.294.06-.227-.11Zm-7.02.864c2.272 0 4.918-.732 6.74-2.104v.003c.302-.231.044-.572-.264-.438a16.123 16.123 0 0 1-6.284 1.314c-2.996 0-5.893-.837-8.238-2.229-.205-.121-.358.093-.186.25a12.062 12.062 0 0 0 8.232 3.204Z" fill="#F90"/></svg>
